src/static/logos/framework7.svg

<?xml version="1.0" encoding="UTF-8"?>
<svg width="256px" height="256px" viewBox="0 0 256 256" version="1.1" xmlns="http://www.w3.org/2000/svg" xmlns:xlink="http://www.w3.org/1999/xlink" preserveAspectRatio="xMidYMid">
    <defs>
        <circle id="path-1" cx="128" cy="128" r="128"></circle>
        <linearGradient x1="50%" y1="10.4834541%" x2="50%" y2="0%" id="linearGradient-3">
            <stop stop-color="#B70000" offset="0%"></stop>
            <stop stop-color="#FF2E2E" offset="100%"></stop>
        </linearGradient>
        <linearGradient x1="94.2262842%" y1="28.4907593%" x2="34.9055035%" y2="61.944442%" id="linearGradient-4">
            <stop stop-color="#B70000" offset="0%"></stop>
            <stop stop-color="#FF2E2E" offset="100%"></stop>
        </linearGradient>
        <linearGradient x1="88.5585139%" y1="50%" x2="5.2684286%" y2="100%" id="linearGradient-5">
            <stop stop-color="#B70000" offset="0%"></stop>
            <stop stop-color="#FF2E2E" offset="100%"></stop>
        </linearGradient>
        <linearGradient x1="95.265027%" y1="9.31339475%" x2="11.9836703%" y2="62.083356%" id="linearGradient-6">
            <stop stop-color="#B70000" offset="0%"></stop>
            <stop stop-color="#FF2E2E" offset="100%"></stop>
        </linearGradient>
        <linearGradient x1="67.1571358%" y1="76.5608676%" x2="0%" y2="94.3080635%" id="linearGradient-7">
            <stop stop-color="#B70000" offset="0%"></stop>
            <stop stop-color="#FF2E2E" offset="100%"></stop>
        </linearGradient>
        <linearGradient x1="80.6692233%" y1="52.1781387%" x2="0%" y2="50%" id="linearGradient-8">
            <stop stop-color="#B70000" offset="0%"></stop>
            <stop stop-color="#FF2E2E" offset="100%"></stop>
        </linearGradient>
        <linearGradient x1="76.622759%" y1="50%" x2="4.68864364%" y2="28.8778411%" id="linearGradient-9">
            <stop stop-color="#B70000" offset="0%"></stop>
            <stop stop-color="#FF2E2E" offset="100%"></stop>
        </linearGradient>
        <linearGradient x1="93.7402776%" y1="5.41509121%" x2="8.89805333%" y2="10.9954581%" id="linearGradient-10">
            <stop stop-color="#B70000" offset="0%"></stop>
            <stop stop-color="#FF2E2E" offset="100%"></stop>
        </linearGradient>
        <linearGradient x1="10.9389566%" y1="11.4532129%" x2="55.0490395%" y2="91.1340832%" id="linearGradient-11">
            <stop stop-color="#D13700" offset="0%"></stop>
            <stop stop-color="#F94721" offset="100%"></stop>
        </linearGradient>
        <linearGradient x1="11.961026%" y1="33.2900315%" x2="100%" y2="100%" id="linearGradient-12">
            <stop stop-color="#B70000" offset="0%"></stop>
            <stop stop-color="#FF2E2E" offset="100%"></stop>
        </linearGradient>
        <linearGradient x1="4.79679953%" y1="0%" x2="78.8898107%" y2="76.4422829%" id="linearGradient-13">
            <stop stop-color="#B70000" offset="0%"></stop>
            <stop stop-color="#FF2E2E" offset="100%"></stop>
        </linearGradient>
        <linearGradient x1="11.9836705%" y1="20.0165789%" x2="85.8910618%" y2="85.8681926%" id="linearGradient-14">
            <stop stop-color="#B70000" offset="0%"></stop>
            <stop stop-color="#FF2E2E" offset="100%"></stop>
        </linearGradient>
        <linearGradient x1="0%" y1="3.65270201%" x2="95.6930989%" y2="50%" id="linearGradient-15">
            <stop stop-color="#B70000" offset="0%"></stop>
            <stop stop-color="#FF2E2E" offset="100%"></stop>
        </linearGradient>
        <linearGradient x1="20.672013%" y1="38.8371981%" x2="97.3570207%" y2="100%" id="linearGradient-16">
            <stop stop-color="#B70000" offset="0%"></stop>
            <stop stop-color="#FF2E2E" offset="100%"></stop>
        </linearGradient>
        <linearGradient x1="25.0561659%" y1="10.0003418%" x2="100%" y2="88.6450269%" id="linearGradient-17">
            <stop stop-color="#B70000" offset="0%"></stop>
            <stop stop-color="#FF2E2E" offset="100%"></stop>
        </linearGradient>
    </defs>
		<g>
				<mask id="mask-2" fill="white">
						<use xlink:href="#path-1"></use>
				</mask>
				<g mask="url(#mask-2)" fill-rule="nonzero">
						<g transform="translate(-1.920000, 0.000000)">
								<circle fill="url(#linearGradient-3)" cx="129.92" cy="128" r="128"></circle>
								<path d="M30.6988749,208.871414 C32,215.68 68.16,250.304004 94.08,251.52 C94.08,251.52 97.5034707,236.909398 100.063471,212.589398 L30.6988749,208.871414 Z" fill="url(#linearGradient-4)"></path>
								<path d="M30.6988749,208.871414 C32,215.68 68.16,250.304004 94.08,251.52 C94.08,251.52 97.5034707,236.909398 100.063471,212.589398 L30.6988749,208.871414 Z" fill="#FD4B00"></path>
								<path d="M99.9123731,212.818748 C103.502435,198.322797 109.20876,176.927485 116.48,159.36 L30.6988749,208.871414 L99.9123731,212.818748 Z" fill="url(#linearGradient-5)"></path>
								<path d="M99.9123731,212.818748 C103.502435,198.322797 109.20876,176.927485 116.48,159.36 L30.6988749,208.871414 L99.9123731,212.818748 Z" fill-opacity="0.8" fill="#FD4B00"></path>
								<path d="M116.148176,160.578611 L4.91106395,155.635793 C3.84,165.76 17.28,200.96 30.6988749,208.871414 L116.148176,160.578611 Z" fill="url(#linearGradient-6)"></path>
								<path d="M116.148176,160.578611 L4.91106395,155.635793 C3.84,165.76 17.28,200.96 30.6988749,208.871414 L116.148176,160.578611 Z" fill-opacity="0.6" fill="#FD4B00"></path>
								<path d="M116.218114,160.969825 C120.85847,149.758618 137.275516,118.800397 139.52,115.2 L4.91106395,155.635793" fill="url(#linearGradient-7)"></path>
								<path d="M116.218114,160.969825 C120.85847,149.758618 137.275516,118.800397 139.52,115.2 L4.91106395,155.635793" fill-opacity="0.4" fill="#FD4B00"></path>
								<path d="M142.59394,115.815689 L16.3973673,68.8110653 C-2.56,87.68 -2.56,145.92 4.91106395,155.635793 L142.59394,115.815689 Z" fill="url(#linearGradient-8)"></path>
								<path d="M142.59394,115.815689 L16.3973673,68.8110653 C-2.56,87.68 -2.56,145.92 4.91106395,155.635793 L142.59394,115.815689 Z" fill-opacity="0.2" fill="#FD4B00"></path>
								<path d="M139.518489,115.434847 C158.718489,88.5548468 176.700771,63.5503944 189.44,49.28 L16.3973673,68.8110653 L139.518489,115.434847 Z" fill="url(#linearGradient-9)"></path>
								<path d="M188.43948,51.7141996 C201.337731,37.26567 209.92,27.52 209.92,27.52 L91.905152,27.6147153 L50.432002,27.6480005 C31.36,39.04 21.12,48.1655326 16.3973673,68.8110653 L188.43948,51.7141996 Z" fill="url(#linearGradient-10)"></path>
								<path d="M188.43948,51.7141996 C201.337731,37.26567 209.92,27.52 209.92,27.52 L91.905152,27.6147153 L50.432002,27.6480005 C31.36,39.04 21.12,48.1655326 16.3973673,68.8110653 L188.43948,51.7141996 Z" fill-opacity="0.1" fill="#632003"></path>
								<path d="M177.196797,246.988808 C177.196797,246.988808 130.995596,223.894287 107.894995,212.347027 C106.70333,211.751352 76.6199066,243.966003 101.669953,252.863002 C126.72,261.76 160.64,256 177.196797,246.988808 Z" fill="url(#linearGradient-11)"></path>
								<path d="M177.196797,246.988808 C177.196797,246.988808 130.995596,223.894287 107.894995,212.347027 C106.70333,211.751352 76.6199066,243.966003 101.669953,252.863002 C126.72,261.76 160.64,256 177.196797,246.988808 Z" fill="#FD4B00"></path>
								<path d="M177.196797,246.988808 L122.88,162.56 C122.88,162.56 116.281068,179.628067 112,193.28 C108.62643,204.038006 106.233186,213.811296 106.740486,214.064879 C129.881688,225.632435 177.196797,246.988808 177.196797,246.988808 Z" fill="url(#linearGradient-12)"></path>
								<path d="M177.196797,246.988808 L122.88,162.56 C122.88,162.56 116.281068,179.628067 112,193.28 C108.62643,204.038006 106.233186,213.811296 106.740486,214.064879 C129.881688,225.632435 177.196797,246.988808 177.196797,246.988808 Z" fill-opacity="0.8" fill="#FD4B00"></path>
								<path d="M177.193883,246.987055 C200.96,241.92 232.96,211.2 236.518399,198.886406 L122.88,163.2 L177.193883,246.987055 Z" fill="url(#linearGradient-13)"></path>
								<path d="M177.193883,246.987055 C200.96,241.92 232.96,211.2 236.518399,198.886406 L122.88,163.2 L177.193883,246.987055 Z" fill-opacity="0.6" fill="#FD4B00"></path>
								<path d="M236.515385,198.886721 C236.515385,198.886721 176.994995,144.004381 146.800197,117.52657 C146.480956,117.246627 136.827184,132.298634 131.2,143.36 C125.481462,154.600941 122.090656,163.634383 122.614597,163.798185 C160.306881,175.582104 236.515385,198.886721 236.515385,198.886721 Z" fill="url(#linearGradient-14)"></path>
								<path d="M236.515385,198.886721 C236.515385,198.886721 176.994995,144.004381 146.800197,117.52657 C146.480956,117.246627 136.827184,132.298634 131.2,143.36 C125.481462,154.600941 122.090656,163.634383 122.614597,163.798185 C160.306881,175.582104 236.515385,198.886721 236.515385,198.886721 Z" fill-opacity="0.4" fill="#FD4B00"></path>
								<path d="M236.518399,198.886406 C250.88,184.32 261.12,161.28 257.92,128 L144,117.76 L236.518399,198.886406 Z" fill="url(#linearGradient-15)"></path>
								<path d="M236.518399,198.886406 C250.88,184.32 261.12,161.28 257.92,128 L144,117.76 L236.518399,198.886406 Z" fill-opacity="0.2" fill="#FD4B00"></path>
								<path d="M257.92,128 C257.92,128 216.241044,78.5972883 194.56,55.04 C194.31762,54.7766451 180.677912,70.5495069 169.6,85.12 C157.568545,100.944664 145.423093,118.995334 145.92,119.04 C182.9389,122.367542 257.92,128 257.92,128 Z" fill="url(#linearGradient-16)"></path>
								<path d="M257.92,128 C257.92,128 216.241044,78.5972883 194.56,55.04 C194.31762,54.7766451 180.677912,70.5495069 169.6,85.12 C157.568545,100.944664 145.423093,118.995334 145.92,119.04 C182.9389,122.367542 257.92,128 257.92,128 Z" fill-opacity="0" fill="#FD4B00"></path>
								<path d="M257.92,128 C257.92,69.12 226.56,40.32 215.663133,33.0755079 C215.663133,33.0755079 204.8,44.16 192.64,56.96 L257.92,128 Z" fill="url(#linearGradient-17)"></path>
								<path d="M257.92,128 C257.92,69.12 226.56,40.32 215.663133,33.0755079 C215.663133,33.0755079 204.8,44.16 192.64,56.96 L257.92,128 Z" fill-opacity="0.1" fill="#632003"></path>
								<path d="M50.304,27.6552173 L209.792,27.6552173 C192.127912,45.3193056 176.064072,63.6231226 161.6,82.5672173 C147.135928,101.511312 134.720052,121.415113 124.352,142.279217 C113.983948,163.143322 106.048028,185.095102 100.544,208.135217 C95.0399725,231.175332 92.4159987,255.495089 92.672,281.095217 L100.352,281.095217 C100.352,254.983087 103.167972,230.599331 108.8,207.943217 C114.432028,185.287104 122.367949,163.783319 132.608,143.431217 C142.848051,123.079116 155.263927,103.559311 169.856,84.8712173 C184.448073,66.1831238 200.575912,48.0073056 218.24,30.3432173 L218.24,19.9752173 L50.304,19.9752173 L50.304,27.6552173 Z" fill="#FFFFFF"></path>
						</g>
				</g>
		</g>
</svg>

<svg width="256" height="256" xmlns="http://www.w3.org/2000/svg" xmlns:xlink="http://www.w3.org/1999/xlink" preserveAspectRatio="xMidYMid"><defs><linearGradient x1="50%" y1="10.483%" x2="50%" y2="0%" id="c"><stop stop-color="#B70000" offset="0%"/><stop stop-color="#FF2E2E" offset="100%"/></linearGradient><linearGradient x1="94.226%" y1="28.491%" x2="34.906%" y2="61.944%" id="d"><stop stop-color="#B70000" offset="0%"/><stop stop-color="#FF2E2E" offset="100%"/></linearGradient><linearGradient x1="88.559%" y1="50%" x2="5.268%" y2="100%" id="e"><stop stop-color="#B70000" offset="0%"/><stop stop-color="#FF2E2E" offset="100%"/></linearGradient><linearGradient x1="95.265%" y1="9.313%" x2="11.984%" y2="62.083%" id="f"><stop stop-color="#B70000" offset="0%"/><stop stop-color="#FF2E2E" offset="100%"/></linearGradient><linearGradient x1="67.157%" y1="76.561%" x2="0%" y2="94.308%" id="g"><stop stop-color="#B70000" offset="0%"/><stop stop-color="#FF2E2E" offset="100%"/></linearGradient><linearGradient x1="80.669%" y1="52.178%" x2="0%" y2="50%" id="h"><stop stop-color="#B70000" offset="0%"/><stop stop-color="#FF2E2E" offset="100%"/></linearGradient><linearGradient x1="76.623%" y1="50%" x2="4.689%" y2="28.878%" id="i"><stop stop-color="#B70000" offset="0%"/><stop stop-color="#FF2E2E" offset="100%"/></linearGradient><linearGradient x1="93.74%" y1="5.415%" x2="8.898%" y2="10.995%" id="j"><stop stop-color="#B70000" offset="0%"/><stop stop-color="#FF2E2E" offset="100%"/></linearGradient><linearGradient x1="10.939%" y1="11.453%" x2="55.049%" y2="91.134%" id="k"><stop stop-color="#D13700" offset="0%"/><stop stop-color="#F94721" offset="100%"/></linearGradient><linearGradient x1="11.961%" y1="33.29%" x2="100%" y2="100%" id="l"><stop stop-color="#B70000" offset="0%"/><stop stop-color="#FF2E2E" offset="100%"/></linearGradient><linearGradient x1="4.797%" y1="0%" x2="78.89%" y2="76.442%" id="m"><stop stop-color="#B70000" offset="0%"/><stop stop-color="#FF2E2E" offset="100%"/></linearGradient><linearGradient x1="11.984%" y1="20.017%" x2="85.891%" y2="85.868%" id="n"><stop stop-color="#B70000" offset="0%"/><stop stop-color="#FF2E2E" offset="100%"/></linearGradient><linearGradient x1="0%" y1="3.653%" x2="95.693%" y2="50%" id="o"><stop stop-color="#B70000" offset="0%"/><stop stop-color="#FF2E2E" offset="100%"/></linearGradient><linearGradient x1="20.672%" y1="38.837%" x2="97.357%" y2="100%" id="p"><stop stop-color="#B70000" offset="0%"/><stop stop-color="#FF2E2E" offset="100%"/></linearGradient><linearGradient x1="25.056%" y1="10%" x2="100%" y2="88.645%" id="q"><stop stop-color="#B70000" offset="0%"/><stop stop-color="#FF2E2E" offset="100%"/></linearGradient><circle id="a" cx="128" cy="128" r="128"/></defs><mask id="b" fill="#fff"><use xlink:href="#a"/></mask><g mask="url(#b)"><g transform="translate(-1.92)"><circle fill="url(#c)" cx="129.92" cy="128" r="128"/><path d="M30.699 208.871C32 215.68 68.16 250.304 94.08 251.52c0 0 3.423-14.61 5.983-38.93L30.7 208.87z" fill="url(#d)"/><path d="M30.699 208.871C32 215.68 68.16 250.304 94.08 251.52c0 0 3.423-14.61 5.983-38.93L30.7 208.87z" fill="#FD4B00"/><path d="M99.912 212.819c3.59-14.496 9.297-35.892 16.568-53.459l-85.781 49.511 69.213 3.948z" fill="url(#e)"/><path d="M99.912 212.819c3.59-14.496 9.297-35.892 16.568-53.459l-85.781 49.511 69.213 3.948z" fill-opacity=".8" fill="#FD4B00"/><path d="M116.148 160.579L4.911 155.636C3.84 165.76 17.28 200.96 30.7 208.87l85.45-48.292z" fill="url(#f)"/><path d="M116.148 160.579L4.911 155.636C3.84 165.76 17.28 200.96 30.7 208.87l85.45-48.292z" fill-opacity=".6" fill="#FD4B00"/><path d="M116.218 160.97c4.64-11.211 21.058-42.17 23.302-45.77L4.911 155.636" fill="url(#g)"/><path d="M116.218 160.97c4.64-11.211 21.058-42.17 23.302-45.77L4.911 155.636" fill-opacity=".4" fill="#FD4B00"/><path d="M142.594 115.816L16.397 68.81C-2.56 87.68-2.56 145.92 4.911 155.636l137.683-39.82z" fill="url(#h)"/><path d="M142.594 115.816L16.397 68.81C-2.56 87.68-2.56 145.92 4.911 155.636l137.683-39.82z" fill-opacity=".2" fill="#FD4B00"/><path d="M139.518 115.435c19.2-26.88 37.183-51.885 49.922-66.155L16.397 68.811l123.121 46.624z" fill="url(#i)"/><path d="M188.44 51.714a5299.125 5299.125 0 0021.48-24.194l-118.015.095-41.473.033C31.36 39.04 21.12 48.166 16.397 68.811L188.44 51.714z" fill="url(#j)"/><path d="M188.44 51.714a5299.125 5299.125 0 0021.48-24.194l-118.015.095-41.473.033C31.36 39.04 21.12 48.166 16.397 68.811L188.44 51.714z" fill-opacity=".1" fill="#632003"/><path d="M177.197 246.989l-69.302-34.642c-1.192-.596-31.275 31.619-6.225 40.516 25.05 8.897 58.97 3.137 75.527-5.874z" fill="url(#k)"/><path d="M177.197 246.989l-69.302-34.642c-1.192-.596-31.275 31.619-6.225 40.516 25.05 8.897 58.97 3.137 75.527-5.874z" fill="#FD4B00"/><path d="M177.197 246.989L122.88 162.56s-6.599 17.068-10.88 30.72c-3.374 10.758-5.767 20.531-5.26 20.785 23.142 11.567 70.457 32.924 70.457 32.924z" fill="url(#l)"/><path d="M177.197 246.989L122.88 162.56s-6.599 17.068-10.88 30.72c-3.374 10.758-5.767 20.531-5.26 20.785 23.142 11.567 70.457 32.924 70.457 32.924z" fill-opacity=".8" fill="#FD4B00"/><path d="M177.194 246.987c23.766-5.067 55.766-35.787 59.324-48.1L122.88 163.2l54.314 83.787z" fill="url(#m)"/><path d="M177.194 246.987c23.766-5.067 55.766-35.787 59.324-48.1L122.88 163.2l54.314 83.787z" fill-opacity=".6" fill="#FD4B00"/><path d="M236.515 198.887s-59.52-54.883-89.715-81.36c-.319-.28-9.973 14.772-15.6 25.833-5.719 11.24-9.11 20.274-8.585 20.438 37.692 11.784 113.9 35.089 113.9 35.089z" fill="url(#n)"/><path d="M236.515 198.887s-59.52-54.883-89.715-81.36c-.319-.28-9.973 14.772-15.6 25.833-5.719 11.24-9.11 20.274-8.585 20.438 37.692 11.784 113.9 35.089 113.9 35.089z" fill-opacity=".4" fill="#FD4B00"/><path d="M236.518 198.886C250.88 184.32 261.12 161.28 257.92 128L144 117.76l92.518 81.126z" fill="url(#o)"/><path d="M236.518 198.886C250.88 184.32 261.12 161.28 257.92 128L144 117.76l92.518 81.126z" fill-opacity=".2" fill="#FD4B00"/><path d="M257.92 128s-41.679-49.403-63.36-72.96c-.242-.263-13.882 15.51-24.96 30.08-12.031 15.825-24.177 33.875-23.68 33.92 37.019 3.328 112 8.96 112 8.96z" fill="url(#p)"/><path d="M257.92 128s-41.679-49.403-63.36-72.96c-.242-.263-13.882 15.51-24.96 30.08-12.031 15.825-24.177 33.875-23.68 33.92 37.019 3.328 112 8.96 112 8.96z" fill="none"/><path d="M257.92 128c0-58.88-31.36-87.68-42.257-94.924 0 0-10.863 11.084-23.023 23.884L257.92 128z" fill="url(#q)"/><path d="M257.92 128c0-58.88-31.36-87.68-42.257-94.924 0 0-10.863 11.084-23.023 23.884L257.92 128z" fill-opacity=".1" fill="#632003"/><path d="M50.304 27.655h159.488C192.128 45.32 176.064 63.623 161.6 82.567c-14.464 18.944-26.88 38.848-37.248 59.712-10.368 20.864-18.304 42.816-23.808 65.856-5.504 23.04-8.128 47.36-7.872 72.96h7.68c0-26.112 2.816-50.496 8.448-73.152 5.632-22.656 13.568-44.16 23.808-64.512 10.24-20.352 22.656-39.872 37.248-58.56 14.592-18.688 30.72-36.864 48.384-54.528V19.975H50.304v7.68z" fill="#FFF"/></g></g></svg>
